lib/svgs/team-stamp.svg

<?xml version="1.0" encoding="UTF-8" standalone="no"?>
<svg width="20px" height="20px" viewBox="0 0 20 20" version="1.1" xmlns="http://www.w3.org/2000/svg" xmlns:xlink="http://www.w3.org/1999/xlink">
    <defs></defs>
    <g id="Icons" stroke="none" stroke-width="1" fill="none" fill-rule="evenodd">
        <g id="Web" transform="translate(-145.000000, -2442.000000)" fill="#000000">
            <g id="team/team-stamp" transform="translate(145.000000, 2442.000000)">
                <path d="M4.25,15.5 L16.75,15.5 L16.75,16.75 L4.25,16.75 L4.25,15.5 L4.25,15.5 M16.718125,10.8725 L12.375,9.424375 L12.375,5.950625 L13.823125,5.4675 C14.078125,5.3825 14.25,5.14375 14.25,4.875 L14.25,3 L6.75,3 L6.75,4.875 C6.75,5.14375 6.921875,5.3825 7.176875,5.4675 L8.625,5.950625 L8.625,9.425 L4.281875,10.8725 C3.51625,11.1275 3,11.84375 3,12.650625 L3,14.25 L18,14.25 L18,12.650625 C18,11.84375 17.48375,11.1275 16.718125,10.8725 L16.718125,10.8725" id="Shape"></path>
            </g>
        </g>
    </g>
</svg>

<svg xmlns="http://www.w3.org/2000/svg" viewBox="0 0 20 20">
    <path fill="#000" fill-rule="evenodd" d="M4.25 15.5h12.5v1.25H4.25V15.5m12.468-4.627l-4.343-1.449V5.951l1.448-.483a.624.624 0 0 0 .427-.593V3h-7.5v1.875c0 .269.172.508.427.593l1.448.483v3.474l-4.343 1.447A1.874 1.874 0 0 0 3 12.652v1.599h15v-1.6c0-.806-.516-1.523-1.282-1.777"/>
</svg>
